assets/images/svg/help.svg

<svg width="20" height="22" viewBox="0 0 20 22" fill="none" xmlns="http://www.w3.org/2000/svg">
<path d="M17.8967 7.61647C17.8967 3.48805 14.5499 0.141296 10.4215 0.141296C6.29306 0.141296 2.94631 3.48805 2.94631 7.61647C1.87902 7.74937 0.869873 8.44705 0.869873 10.0667V13.9704C0.869873 15.7976 2.14896 16.4621 3.3616 16.4621H4.56593C4.79528 16.4621 4.98122 16.2762 4.98122 16.0468V8.00684C4.98122 7.7775 4.79528 7.59156 4.56593 7.59156H3.77689C3.77689 3.92187 6.7518 0.946954 10.4215 0.946954C14.0912 0.946954 17.0661 3.92187 17.0661 7.59156H16.277C16.0477 7.59156 15.8618 7.7775 15.8618 8.00684V16.0344C15.8618 16.2637 16.0477 16.4496 16.277 16.4496H17.0661C16.9498 19.3027 15.5794 19.9713 12.8426 20.0917V19.8135C12.8426 19.3547 12.4708 18.9829 12.012 18.9829H9.39988C8.94114 18.9829 8.56931 19.3547 8.56931 19.8135V21.1632C8.56931 21.6219 8.94114 21.9937 9.39988 21.9937H12.0203C12.4791 21.9937 12.8509 21.6219 12.8509 21.1632V20.9223C15.4838 20.8019 17.7596 20.2578 17.8967 16.4247C18.964 16.2918 19.9731 15.5941 19.9731 13.9745V10.0708C19.9731 8.4429 18.9681 7.74937 17.8967 7.61647ZM4.15065 8.39306V15.6191H3.34083C2.72621 15.6191 1.67968 15.4031 1.67968 13.9579V10.0542C1.67968 8.62147 2.71375 8.39306 3.34083 8.39306H4.15065ZM12.0203 20.5361V21.1673H9.39988V19.8176H12.0203V20.5361ZM19.1425 13.9704C19.1425 15.4031 18.1085 15.6315 17.4814 15.6315H16.6923V8.42213H17.5021C18.1168 8.42213 19.1633 8.63808 19.1633 10.0833L19.1425 13.9704Z" fill="#9E9E9E"/>
</svg>

<svg width="20" height="22" fill="none" xmlns="http://www.w3.org/2000/svg"><path d="M17.897 7.616a7.475 7.475 0 00-14.95 0C1.878 7.75.87 8.447.87 10.066v3.904c0 1.828 1.279 2.492 2.492 2.492h1.204c.23 0 .415-.186.415-.415v-8.04a.415.415 0 00-.415-.415h-.79a6.645 6.645 0 0113.29 0h-.789a.415.415 0 00-.415.415v8.027c0 .23.186.416.415.416h.79c-.117 2.853-1.488 3.521-4.224 3.642v-.278a.83.83 0 00-.831-.831H9.4a.83.83 0 00-.83.83v1.35c0 .459.371.83.83.83h2.62a.83.83 0 00.83-.83v-.24c2.634-.121 4.91-.665 5.047-4.498 1.067-.133 2.076-.83 2.076-2.45V10.07c0-1.628-1.005-2.322-2.076-2.455zM4.15 8.393v7.226h-.81c-.615 0-1.661-.216-1.661-1.661v-3.904c0-1.433 1.034-1.66 1.66-1.66h.81zm7.87 12.143v.631H9.4v-1.35h2.62v.72zm7.121-6.566c0 1.433-1.034 1.662-1.66 1.662h-.79v-7.21h.81c.615 0 1.661.216 1.661 1.661l-.02 3.887z" fill="#9E9E9E"/></svg>
